X:2101
T:Brefni O'Reilly
M:2/2
L:1/8
C:Ed Reavy
R:Reel
N:Is one of the landed names of 
N:Cavan and of old Brefni before it. The 
N:O'Reillys have spread far and wide to wherever the
N:immigrant has ventured in his many meanderings. 
N:This title could well be our
N:proud county's battlecry, or the triumphant 
N:chant of a Cavan footballer
N:scoring a winning goal at Croake Park.
Z:Joe Reavy
K:G
DF||:G2 dG FDCD|GAcd fgaf|gd (3dcd cAGA|dcAG FDCD|G2 dG FDCD|
GAcd fgaf|gbaf fagf|1dcAF DGGF:|2dcAF DGGA||B2 ga fagf|
dcBc A=F (3FEF|GABc defg|agfa gfga|(3bag (3agf gfdc|
BGdG A=F (3FEF|GABc dgbg|1 gdcA BGGA:|2fdcA BGGF:||


